assets/images/cards/google-pay.svg

<svg width="64" height="40" viewBox="0 0 64 40" fill="none" xmlns="http://www.w3.org/2000/svg">
<path d="M60.3803 0H3.48008C1.60395 0 0.0830536 1.5209 0.0830536 3.39703V36.603C0.0830536 38.4791 1.60395 40 3.48008 40H60.3803C62.2564 40 63.7773 38.4791 63.7773 36.603V3.39703C63.7773 1.5209 62.2564 0 60.3803 0Z" fill="white"/>
<path fill-rule="evenodd" clip-rule="evenodd" d="M30.9032 25.0702V19.7939V19.7929H33.7575C34.9342 19.7936 35.9232 19.4238 36.7244 18.6836C37.5341 17.981 37.9868 16.9709 37.9638 15.9181C37.9798 14.8711 37.5279 13.8685 36.7244 13.1682C35.9302 12.4239 34.8621 12.0178 33.7575 12.0402H29.1756V25.0702H30.9032ZM30.9032 18.1929V13.6444V13.6433H33.8004C34.4461 13.6258 35.0686 13.8775 35.5097 14.3347C35.9536 14.7528 36.204 15.3271 36.204 15.9269C36.204 16.5267 35.9536 17.101 35.5097 17.5192C35.0631 17.9667 34.4426 18.2113 33.8004 18.1929H30.9032Z" fill="#5F6368"/>
<path fill-rule="evenodd" clip-rule="evenodd" d="M44.9685 16.8558C44.2295 16.1946 43.2216 15.864 41.9447 15.864C40.3044 15.864 39.0657 16.4462 38.2287 17.6106L39.7503 18.539C40.3126 17.7503 41.0762 17.3559 42.0412 17.3559C42.6565 17.3489 43.2519 17.5668 43.7087 17.9662C44.1642 18.3311 44.4263 18.8751 44.4223 19.4477V19.8303C43.7585 19.4664 42.9136 19.2845 41.8878 19.2845C40.686 19.2859 39.7253 19.5589 39.0056 20.1037C38.286 20.6485 37.9261 21.3821 37.9261 22.3047C37.9105 23.1447 38.2865 23.9468 38.9498 24.4879C39.6323 25.0701 40.4803 25.3612 41.494 25.3612C42.6815 25.3612 43.6329 24.8518 44.3483 23.833H44.4234V25.0701H46.0759V19.5756C46.0766 18.4236 45.7074 17.5171 44.9685 16.8558ZM40.2826 23.4327C39.9207 23.1799 39.7073 22.7733 39.7096 22.341C39.7096 21.8555 39.9446 21.4511 40.4178 21.1184C40.8864 20.7906 41.4715 20.6267 42.1733 20.6267C43.1369 20.6267 43.888 20.8346 44.4267 21.2504C44.4267 21.9533 44.1405 22.5656 43.5682 23.0875C43.0528 23.587 42.354 23.8682 41.625 23.8693C41.1389 23.8781 40.6647 23.7239 40.2826 23.4327Z" fill="#5F6368"/>
<path fill-rule="evenodd" clip-rule="evenodd" d="M55.5616 16.155L49.7929 28.9999H48.0096L50.1503 24.5055L46.3571 16.155H48.2349L50.9765 22.5593H51.0141L53.6806 16.155H55.5616Z" fill="#5F6368"/>
<path fill-rule="evenodd" clip-rule="evenodd" d="M23.9219 18.6565C23.9225 18.1463 23.878 17.6371 23.7888 17.1344H16.5029V20.0174H20.676C20.5034 20.9478 19.946 21.7695 19.1329 22.2921V24.1635H21.6234C23.0817 22.8608 23.9219 20.9343 23.9219 18.6565Z" fill="#4285F4"/>
<path fill-rule="evenodd" clip-rule="evenodd" d="M16.5029 25.9716C18.5878 25.9716 20.3433 25.3083 21.6234 24.1646L19.1329 22.2933C18.4397 22.7486 17.547 23.0085 16.5029 23.0085C14.4877 23.0085 12.7773 21.6923 12.1657 19.9187H9.60005V21.8473C10.9115 24.3756 13.5823 25.9714 16.5029 25.9716Z" fill="#34A853"/>
<path fill-rule="evenodd" clip-rule="evenodd" d="M12.1657 19.9187C11.8423 18.9893 11.8423 17.9828 12.1657 17.0534V15.1249H9.60006C8.50317 17.2397 8.50317 19.7325 9.60006 21.8473L12.1657 19.9187Z" fill="#FBBC04"/>
<path fill-rule="evenodd" clip-rule="evenodd" d="M16.5029 13.9635C17.6047 13.9461 18.6693 14.3494 19.4666 15.0863L21.6717 12.9498C20.2735 11.6774 18.4211 10.9788 16.5029 11.0005C13.5823 11.0006 10.9115 12.5964 9.60005 15.1248L12.1657 17.0533C12.7773 15.2797 14.4877 13.9635 16.5029 13.9635Z" fill="#EA4335"/>
</svg>

<svg xmlns="http://www.w3.org/2000/svg" width="64" height="40" fill="none"><path fill="#fff" d="M60.38 0H3.48a3.4 3.4 0 0 0-3.4 3.4v33.2a3.4 3.4 0 0 0 3.4 3.4h56.9a3.4 3.4 0 0 0 3.4-3.4V3.4a3.4 3.4 0 0 0-3.4-3.4Z"/><path fill="#5F6368" fill-rule="evenodd" d="M30.9 25.07v-5.28h2.86a4.2 4.2 0 0 0 2.96-1.1 3.56 3.56 0 0 0 1.24-2.77 3.58 3.58 0 0 0-1.24-2.75 4.22 4.22 0 0 0-2.96-1.13h-4.58v13.03h1.72Zm0-6.88v-4.55h2.9c.65-.01 1.27.24 1.71.7a2.19 2.19 0 0 1 0 3.18c-.45.45-1.07.7-1.71.67h-2.9ZM44.97 16.86c-.74-.67-1.75-1-3.03-1-1.64 0-2.87.59-3.71 1.75l1.52.93a2.67 2.67 0 0 1 2.3-1.18c.6-.01 1.2.2 1.66.6.45.37.72.92.71 1.49v.38a5.24 5.24 0 0 0-2.53-.55c-1.2 0-2.16.28-2.88.82a2.62 2.62 0 0 0-1.08 2.2c-.02.84.36 1.65 1.02 2.19.68.58 1.53.87 2.54.87 1.2 0 2.14-.5 2.86-1.53h.07v1.24h1.66v-5.5c0-1.15-.37-2.05-1.11-2.71Zm-4.69 6.57a1.32 1.32 0 0 1-.57-1.09c0-.48.23-.89.7-1.22.48-.33 1.06-.5 1.76-.5.97 0 1.72.21 2.26.63 0 .7-.29 1.32-.86 1.84a2.8 2.8 0 0 1-1.95.78c-.48 0-.96-.15-1.34-.44ZM55.56 16.16 49.8 29h-1.78l2.14-4.5-3.8-8.34h1.88l2.75 6.4H51l2.67-6.4h1.88Z" clip-rule="evenodd"/><path fill="#4285F4" fill-rule="evenodd" d="M23.92 18.66c0-.51-.04-1.02-.13-1.53H16.5v2.89h4.18a3.46 3.46 0 0 1-1.55 2.27v1.87h2.5a7.2 7.2 0 0 0 2.3-5.5Z" clip-rule="evenodd"/><path fill="#34A853" fill-rule="evenodd" d="M16.5 25.97c2.09 0 3.84-.66 5.12-1.8l-2.49-1.88c-.69.46-1.58.72-2.63.72a4.6 4.6 0 0 1-4.33-3.1H9.6v1.94a7.76 7.76 0 0 0 6.9 4.12Z" clip-rule="evenodd"/><path fill="#FBBC04" fill-rule="evenodd" d="M12.17 19.92a4.35 4.35 0 0 1 0-2.87v-1.93H9.6a7.28 7.28 0 0 0 0 6.73l2.57-1.93Z" clip-rule="evenodd"/><path fill="#EA4335" fill-rule="evenodd" d="M16.5 13.96c1.1-.01 2.17.39 2.97 1.13l2.2-2.14A7.56 7.56 0 0 0 16.5 11c-2.92 0-5.59 1.6-6.9 4.12l2.57 1.93a4.6 4.6 0 0 1 4.33-3.09Z" clip-rule="evenodd"/></svg>
